X:1
T:Tom Jones's. ThoH.025
L:1/8
Q:1/2=90
M:3/2
I:linebreak $
K:C
V:1 treble 
V:1
 c3 e (dcBA) G2 e2 | (fefa) (gfed) c4 | (fefg) (afdc) (Bd) g2 | (Acfe) (dcBA) G4 |$ %4
 (AGFE) (FAdc) (BAGF) | (EDCB,) (CDEF) (GABc) | d3 c (Bc)(dB) G2 g2 | (ecBc) G2 B2 c4 ::$ %8
 d3 c (Bc) d2 g2 f2 | e2 (ag) (fedc) B4 | (A^GAB) (EFGA) (Bcde) | (fdcB) (cAB^G) A4 |$ %12
 (=GFEF) (dFED) (EG) c2 | (DF) B2 (CDEF) (GABc) | d3 c (Bc)(dB) G2 g2 | (ecBc) G2 B2 c4 :| %16
